X: 74
T:John Regan's
M:6/8
L:1/8
S:Nigel Boullier, Bangor, Down (banjo)
R:Jig
H:Very hard to make this one out.
D:Session tape - Portaferry, Down 1993
Z:Bernie Stocks
K:D
A2D FED | A2D FED | GBG FAF | EFE EFG | A2D FED | A2D FED | dcB AFE | DED D3 ::\
ABd fed | eBB BAB | d2e fed | efe e2c | ABd fed | eBB BAB | dcB AFE | DED D3 ::\
d2e f2d | efd cBA | BdB AFD | EFE E2c | d2e f2d | efd cBA | dcB AFE | DED D3 :|
<end>
<start>
